polaris-icons/icons/OutdentMajor.svg

<svg viewBox="0 0 20 20" xmlns="http://www.w3.org/2000/svg">
<path d="M3.75 4C3.33579 4 3 4.33579 3 4.75C3 5.16421 3.33579 5.5 3.75 5.5H16.25C16.6642 5.5 17 5.16421 17 4.75C17 4.33579 16.6642 4 16.25 4H3.75Z" fill="#5C5F62"/>
<path d="M10.75 7.5C10.3358 7.5 10 7.83579 10 8.25C10 8.66421 10.3358 9 10.75 9H16.25C16.6642 9 17 8.66421 17 8.25C17 7.83579 16.6642 7.5 16.25 7.5H10.75Z" fill="#5C5F62"/>
<path d="M10 11.75C10 11.3358 10.3358 11 10.75 11H16.25C16.6642 11 17 11.3358 17 11.75C17 12.1642 16.6642 12.5 16.25 12.5H10.75C10.3358 12.5 10 12.1642 10 11.75Z" fill="#5C5F62"/>
<path d="M3.75 14.5C3.33579 14.5 3 14.8358 3 15.25C3 15.6642 3.33579 16 3.75 16H16.25C16.6642 16 17 15.6642 17 15.25C17 14.8358 16.6642 14.5 16.25 14.5H3.75Z" fill="#5C5F62"/>
<path d="M8 12.4071C8 12.8798 7.45051 13.1618 7.04028 12.8996L3.27489 10.4925C2.90837 10.2582 2.90837 9.7418 3.27489 9.5075L7.04027 7.10041C7.45051 6.83816 8 7.12015 8 7.59292V12.4071Z" fill="#5C5F62"/>
</svg>

<svg xmlns="http://www.w3.org/2000/svg" viewBox="0 0 20 20"><path fill="#5C5F62" d="M3.75 4a.75.75 0 0 0 0 1.5h12.5a.75.75 0 0 0 0-1.5H3.75ZM10.75 7.5a.75.75 0 0 0 0 1.5h5.5a.75.75 0 0 0 0-1.5h-5.5ZM10 11.75a.75.75 0 0 1 .75-.75h5.5a.75.75 0 0 1 0 1.5h-5.5a.75.75 0 0 1-.75-.75ZM3.75 14.5a.75.75 0 0 0 0 1.5h12.5a.75.75 0 0 0 0-1.5H3.75ZM8 12.407c0 .473-.55.755-.96.493l-3.765-2.408a.579.579 0 0 1 0-.985L7.04 7.1c.41-.262.96.02.96.493v4.814Z"/></svg>
